X: 23998
T: Loftus Jones
R: reel
M: 4/4
K: Gmajor
|:g4 f2e2|d3c BcdB|cBAG G2GA|BcBA G3A|
BcdB cdec|d2cB cBAG|FGFE D2DF|GAGF Ec~c2|
dcdB cBcA|G2D2 E2F2|G2E2 F2G2|A2F2 G2A2|
B3G A2B2|c3A d3B|cBAG FGAF|G2DC B,2D2|1 G,6 z2:|2 G4 G3B||
|:A2F2 G2E2|F2D2 E3F|G2B2 F2B2|E4F3D|
B3c A2AB|GABc B3A|GABc dcBA|G2F2 E4|
B,EGE B,EGE|DF~F2 DFAF|EGEG EGEG|FAFA FAFA|
G~B3 GBGB|GBGB GBGB|efg2 f4|e4 e3f|
gbgb fafa|e~c3 dBdB|cAcA BGBG|AGFE DEFD|
G2DC B,DGB|AGFE D3d|cBAG FGAF|G2DC B,2D2|1 G4 G3B:|2 G,8||

